X:36
T:Fat Clouds
M:C|
C:© Paul Gitlitz 2006
B:Anna's Smile
N:You can drop all the 7th from the chords and it still works fine.
N:I just through them in to fatten things up.
K:F
D|:"F"FAcA "Dm7"dAcA|"Gm7"BAG2 "F"AGF2|FAcA "Dm7"dAcA|"Bb"BAG2 "F"A4|!
"F"FAcA "Dm7"dAcA|"Gm7"BAG2 "F"AGF2|"F"FAcA "Dm7"dAcA|"C7"BAG2 "F"F4:|!
|:"F6"fagf "Am7"edc2|"Bbmaj7"dcB2 "F6"cBA2|"Fmaj7"fagf "Am7"edc2|"Bb6"dcB2 "C7"c4|!
"F6"fagf "Am7"edc2|"Bbmaj7"dcB2 "F6"cBA2|"Fmaj7"fagf "Am7"edcB|"C7"AFGE "F"F4:|]
